X:1
T:Cupo è il Sepolcro e mutolo
T:Giuseppe Verdi
T:Johann Gaudenz von Salis-Seewis
T: Cupo è il Sepolcro e mutolo
C:Giuseppe Verdi
Z:Johann Gaudenz von Salis-Seewis
%%score 1 { 2 | 3 }
L:1/8
Q:1/4=50
M:4/4
K:C#min
V:1 bass nm="Baritone" snm="Bar."
V:2 treble nm="Piano" snm="Pno."
V:3 bass 
V:1
"^Grave" G,2 F,>E, D,2 C,2 | ^B,,>A, A,2 z4 | A,2 ^A,>A, =B,2 ^B,2 | C4 C,2 z2 | %4
w: Cu- po\_è\_il se- pol- cro\_e|mu- to- lo;|te- ma\_il suo mar- go\_in-|fon- de;|
!ppp! A,2 A,>A, A,2 A,2 | A,7/2 A,,/ A,,2 z2 |!<(! A,2 A,>A, A,2!<)! A,2 | %7
w: u- na re- gio- ne\_in-|co- gni- ta|in fo- sco vel na-|
 !>!C4 !>!A,2 !fermata!z2 | z8 |"^Recitativo" G,2 G,>G, G,2 G,2 | !>!A,7/2 G,/ G,G,F,E, | %11
w: scon- de.||Ta- ce là den- tro\_il|can- ti- co del ro- si-|
 D,2 z2 z2 z ^B, |!<(! ^B,2 B,>B, B,>B, C>!<)!D | D7/2 G,/ G, z !>!A,2- | A,2"^cupo" G,>F, E,3 D, | %15
w: gnol: le|ro- se del- l'a- mi- stà non|toc- ca- no, che|_ le sue zol- le\_er-|
 D,C, z C, !>!C2- C/>C/B,/>A,/ | !>!G,2- G,/>G,/F,/>E,/ !/-!!>!G,3/4- x5/4 G,/>F,/D,/>F,/ | %17
w: bo- se. In- van _ l'af- flit- ta|ve- * do- va il se- * no,il crin si\_of-|
 E,C, z C, C2- C/>E/D/>C/ |!ff! D3/2 B,/4G,/4 D, z/!p! D,/ D,2- D,/>C,/^A,,/>D,/ | G,,2 G,6- | %20
w: fen- de: del- l'or- * fa- nel- la\_il|ge- mi- * to al fon- * do suo non|scen- de.|
"^Cantabile Largo" G,2!<(! G,>G, !^!A,2!<)! !^!G,2 |!>(! C7/2 B,/!>)! B,4 | %22
w: Pu- re\_i- vi\_è sol la|sta- bi- le|
 (B,2 !^!B,>!^!C) B,3 A, | (G,7/2 F,/ E,2) z2 |!<(! G,2 G,>G, !^![A,C]2 !^![G,B,]2!<)! | %25
w: cal- ma, che l'uom de-|si- * a:|gui- da\_al- la ve- ra|
!>(! [CE]7/2!>)! B,/!<)!!<(! B,4- |!>(! CB,A,G,!>)! (G, B,2) A, | G,7/2 F,/ E,2 z2 | %28
w: pa- tri- a|sol _ quel- la cu- * pa|vi- * a|
!<(! E6!<)! =D=C | B,2 z3/2 B,/ (!>!B,>A,) (!>!B,>A,) | A,=G, z G, F,2 E,2 | D,2 (B,6 | %32
w: Po. ve- ro|cor! dai tur- bi- ni som-|mos- so o- gnor quag-|giù [Ah!]|
!<(! G,2) G,>G, A,2!<)! G,2 | !>!C7/2 B,/ B,4 | B,EDC"^allargando" B,/^A,/C/B,/ G,/=A,/ F,/B,/ | %35
w: so- lo ri- tro- va|re- qui- e|quan- * do non bat- * te non bat- * te _|
 E,2 z2 !>!=C3!p! (!>!B,/!>!^A,/) | B,2 z2!ppp! ((B,2{A,G,F,!>!B,} x2)) | E,2 z2 z4 |] %38
w: più Po- ve- ro|cor! Po-|cor!|
V:2
 (G2 F>E D2 C2) | (^B,>A) A2 z4 |!f! !>![D,F,A,]2 !>![D,F,^A,]2 !>![D,F,B,]2 !>![D,F,^B,]2 | %3
!ff! !>![C,E,C]4 z4 | z4 A,4 | A,2 z2!pp! z4 | [=F,A,]4 [=C,A,]4 | A,4 z2 !fermata!z2 | %8
!ppp! (G,2 F,>E, D,2 C,2) | ^B,,2 z2 z4 | z8 | z2 (D,>C, ^B,,2 =A,,2) | z8 |!pp! ^B,8 | z8 | %15
 !>![E,G,C]/.[E,G,C]/.[E,G,C]/.[E,G,C]/ .[E,G,C]/.[E,G,C]/.[E,G,C]/.[E,G,C]/ !>![F,A,C]/.[F,A,C]/.[F,A,C]/.[F,A,C]/ .[F,A,C]/.[F,A,C]/.[F,A,C]/.[F,A,C]/ | %16
 !>![E,G,C]/.[E,G,C]/.[E,G,C]/.[E,G,C]/ .[E,G,C]/.[E,G,C]/.[E,G,C]/.[E,G,C]/ !>![D,F,^B,]/.[D,F,B,]/.[D,F,B,]/.[D,F,B,]/ .[D,F,B,]/.[D,F,B,]/.[D,F,B,]/.[D,F,B,]/ | %17
 .[E,G,C]/.[E,G,C]/.[E,G,C]/.[E,G,C]/ .[E,G,C]/.[E,G,C]/.[E,G,C]/.[E,G,C]/ .[E,G,C]/.[E,G,C]/.[E,G,C]/.[E,G,C]/ .[E,G,C]/.[E,G,C]/.[E,G,C]/.[E,G,C]/ | %18
 .[D,G,B,D]/!>(!.[D,G,B,D]/.[D,G,B,D]/.[D,G,B,D]/ .[D,G,B,D]/.[D,G,B,D]/.[D,G,B,D]/!>)!.[D,G,B,D]/ .[D,^^F,^A,C]/.[D,=F,A,C]/.[D,F,A,C]/.[D,F,A,C]/!pp! .[D,F,A,C]/.[D,F,A,C]/.[D,F,A,C]/.[D,F,A,C]/ | %19
!ppp! [G,B,]/.G,/.G,/.G,/ .G,/.G,/ z z4 | %20
"^Leggero" (6:4:6B,,/E,/G,/B,/G,/E,/ (6:4:6B,,/E,/G,/B,/G,/E,/ (6:4:6C,/E,/A,/C/A,/E,/ (6:4:6B,,/E,/G,/B,/G,/E,/ | %21
 (6:4:6C,/E,/A,/C/A,/E,/ (6:4:6C,/E,/A,/C/A,/E,/ (6:4:6B,,/E,/G,/B,/G,/E,/ (6:4:6B,,/E,/G,/B,/G,/E,/ | %22
 (6:4:6B,,/E,/G,/B,/G,/E,/ (6:4:6B,,/E,/G,/B,/G,/E,/!>(! (6:4:6B,,/E,/A,/B,/A,/D,/ (6:4:6B,,/E,/A,/B,/!>)!A,/D,/ | %23
 (6:4:6B,,/E,/G,/B,/G,/E,/ (6:4:6B,,/E,/G,/B,/G,/E,/ (6:4:6B,,/E,/G,/B,/G,/E,/ (6:4:6B,,/E,/G,/B,/G,/E,/ | %24
"^Leggero" (6:4:6B,,/E,/G,/B,/G,/E,/ (6:4:6B,,/E,/G,/B,/G,/E,/ (6:4:6C,/E,/A,/C/A,/E,/ (6:4:6B,,/E,/G,/B,/G,/E,/ | %25
 (6:4:6C,/E,/A,/C/A,/E,/ (6:4:6C,/E,/A,/C/A,/E,/ (6:4:6B,,/E,/G,/B,/G,/E,/ (6:4:6B,,/E,/G,/B,/G,/E,/ | %26
 (6:4:6B,,/E,/G,/B,/G,/E,/ (6:4:6B,,/E,/G,/B,/G,/E,/ (6:4:6B,,/E,/A,/B,/!>(!A,/D,/ (6:4:6B,,/E,/A,/B,/!>)!A,/D,/ | %27
 (6:4:6B,,/E,/G,/B,/G,/E,/ (6:4:6B,,/E,/G,/B,/G,/E,/ (6:4:6B,,/E,/G,/B,/G,/E,/ (6:4:6B,,/E,/G,/B,/G,/E,/ | %28
 (6:4:6E,/A,/=C/E/C/A,/ (6:4:6E,/A,/C/E/C/A,/ (6:4:6F,/A,/C/!>(!=D/!>(!C/A,/ (6:4:6F,/A,/C/D/C/!>)!!>)!A,/ | %29
 (6:4:6=D,/=G,/B,/=D/B,/G,/ (6:4:6D,/G,/B,/D/B,/G,/ (6:4:6^D,/F,/A,/B,/A,/F,/ (6:4:6D,/F,/A,/B,/A,/F,/ | %30
 (6:4:6E,/=G,/=C/E/C/G,/ (6:4:6E,/G,/C/E/C/!>(!G,/ (6:4:6=C,/!pp!E,/F,/^A,/F,/E,/ (6:4:6C,/!>)!E,/F,/A,/F,/E,/ | %31
!<(! (6:4:6B,,/D,/F,/B,/F,/D,/!<)! (6:4:6B,,/D,/F,/B,/!>(!F,/D,/ (6:4:6^C,/E,/G,/^A,/F,/E,/ (6:4:6D,/F,/=A,/F,/D,/!>)!F,/ | %32
 (6:4:6B,,/E,/G,/B,/G,/E,/ (6:4:6B,,/E,/G,/B,/G,/E,/ (6:4:6C,/E,/A,/C/A,/E,/ (6:4:6B,,/E,/G,/B,/G,/E,/ | %33
 (6:4:6C,/E,/A,/C/A,/E,/ (6:4:6C,/E,/A,/C/A,/E,/ (6:4:6B,,/E,/G,/B,/G,/E,/ (6:4:6B,,/E,/G,/B,/G,/E,/ | %34
 (6:4:6B,,/E,/G,/B,/G,/E,/ (6:4:6B,,/E,/G,/B,/G,/E,/ (6:4:6B,,/"^col canto"E,/A,/B,/A,/D,/ (6:4:6B,,/E,/A,/B,/A,/D,/ | %35
 (6:4:6B,,/E,/G,/B,/G,/E,/ (6:4:6B,,/E,/G,/B,/G,/E,/ (6:4:6=C,/E,/=G,/=C/G,/E,/ (6:4:6C,/E,/G,/C/G,/E,/ | %36
 (6:4:6B,,/=D,/=G,/B,/G,/D,/ (6:4:6B,,/D,/G,/B,/G,/D,/ [^D,B,]2 !fermata!z2 | %37
 (6:4:6B,,/E,/G,/B,/G,/E,/ (6:4:6G,,/B,,/E,/G,/E,/B,,/ [G,,B,,E,]2 z2 |] %38
V:3
 G,2 F,>E, D,2 C,2 | ^B,,>A, A,2 z4 |!<(!!8vb(! !///-!G,,,,2 G,,,2 !///-!G,,,,2!<)! G,,,2!8vb)! | %3
 [A,,,,A,,,]4 z4 | z4!p! [=D,F,]4 | [A,,C,E,]2 z2!8vb(! !///-!A,,,,2!8vb)! A,,,2 | %6
 [=D,,=D,]4 [=F,,=F,]4 | [A,,C,E,]4 z2 z2 | G,,2 F,,>E,, D,,2 C,,2 | ^B,,,2 z2 z4 | z8 | %11
 z2 D,,>C,, ^B,,,2 =A,,,2 | z8 | [G,,D,F,]8 | z8 | %15
 [C,,,C,,][C,,,C,,][C,,,C,,] z [F,,,F,,][F,,,F,,][F,,,F,,] z | %16
 [C,,,C,,][E,,,E,,][C,,,C,,] z [G,,,G,,][^B,,,^B,,][G,,,G,,] z | %17
 [C,,,C,,][E,,,E,,][C,,,C,,] z [E,,,E,,][G,,,G,,][E,,,E,,] z | %18
!ff! [C,,,C,,][E,,,E,,][C,,,C,,] z [C,,,C,,][^^F,,,^^F,,][D,,,D,,] z | G,,,G,, z2 z4 | %20
!p! [E,,,E,,]"^Col canto" z!<(! [E,,,E,,] z [E,,,E,,] z [E,,,E,,]!<)! z | %21
!>(! [A,,,A,,]4!>)! [E,,,E,,] z [E,,,E,,] z | %22
 [B,,,,B,,,] z [B,,,,B,,,] z [B,,,,B,,,] z [B,,,,B,,,] z | %23
 [E,,,E,,] z [E,,,E,,] z [E,,,E,,] z [E,,,E,,] z | %24
 [E,,,E,,] z [E,,,E,,] z [E,,,E,,] z [E,,,E,,] z | [A,,,A,,]4 [E,,,E,,] z [E,,,E,,] z | %26
 [B,,,,B,,,] z [B,,,,B,,,] z [B,,,,B,,,] z [B,,,,B,,,] z | %27
 [E,,,E,,] z [E,,,E,,] z [E,,,E,,] z [E,,,E,,] z | %28
!<(! [A,,,A,,] z [=C,,=C,] z!<)! [=D,,=D,] z [=D,,,D,,] z | %29
 [=G,,,=G,,] z [G,,,G,,] z [B,,,B,,] z [B,,,B,,] z | %30
!>(! [=C,,=C,] z [C,,C,] z!>)! [F,,,F,,] z [F,,,F,,] z | %31
!<(! [B,,,B,,] z!<)! [B,,,B,,]!>(! z [B,,,B,,] z [B,,,B,,]!>)! z | %32
 [E,,,E,,] z [E,,,E,,] z [E,,,E,,] z [E,,,E,,] z | %33
 [E,,,E,,] z [E,,,E,,] z [E,,,E,,] z [E,,,E,,] z | %34
 [B,,,,B,,,] z [B,,,,B,,,] z [B,,,,B,,,] z [B,,,,B,,,] z | %35
 [E,,,E,,] z [E,,,E,,] z [E,,,E,,] z [E,,,E,,] z | %36
 [=G,,,=G,,] z [G,,,G,,] z [B,,,B,,]2 !fermata!z2 | [E,,,E,,] z [E,,,E,,] z [E,,,E,,]2 z2 |] %38

